static/images/invite/double-arrow.svg

<svg width="15" height="15" viewBox="0 0 15 15" fill="none" xmlns="http://www.w3.org/2000/svg">
<g opacity="0.7" clip-path="url(#clip0_11354_15034)">
<path d="M14.8741 7.16596L10.3743 2.16624C10.2783 2.06024 10.1443 2.00024 10.0023 2.00024H7.00249C6.8055 2.00024 6.62651 2.11624 6.54551 2.29623C6.46552 2.47722 6.49852 2.68821 6.63051 2.8342L10.8293 7.49995L6.63051 12.1647C6.49852 12.3117 6.46452 12.5227 6.54551 12.7027C6.62651 12.8837 6.8055 12.9996 7.00249 12.9996H10.0023C10.1443 12.9996 10.2783 12.9387 10.3743 12.8347L14.8741 7.83493C15.0451 7.64494 15.0451 7.35495 14.8741 7.16596Z" fill="#9C9C9C"/>
<path d="M8.37211 7.16596L3.87235 2.16624C3.77636 2.06024 3.64237 2.00024 3.50037 2.00024H0.500535C0.303546 2.00024 0.124556 2.11624 0.0435599 2.29623C-0.0364358 2.47722 -0.00343754 2.68821 0.128555 2.8342L4.32733 7.49995L0.128555 12.1647C-0.00343754 12.3117 -0.0374357 12.5227 0.0435599 12.7027C0.124556 12.8837 0.303546 12.9996 0.500535 12.9996H3.50037C3.64237 12.9996 3.77636 12.9387 3.87235 12.8347L8.37211 7.83493C8.5431 7.64494 8.5431 7.35495 8.37211 7.16596Z" fill="#9C9C9C"/>
</g>
<defs>
<clipPath id="clip0_11354_15034">
<rect width="15" height="15" fill="white"/>
</clipPath>
</defs>
</svg>

<svg xmlns="http://www.w3.org/2000/svg" width="15" height="15" fill="none"><g fill="#9C9C9C" clip-path="url(#a)" opacity=".7"><path d="m14.874 7.166-4.5-5A.5.5 0 0 0 10.002 2h-3a.502.502 0 0 0-.371.834L10.829 7.5l-4.198 4.665a.5.5 0 0 0 .371.835h3c.142 0 .276-.061.372-.165l4.5-5a.5.5 0 0 0 0-.669Z"/><path d="m8.372 7.166-4.5-5A.5.5 0 0 0 3.5 2h-3a.502.502 0 0 0-.371.834L4.327 7.5.13 12.165A.5.5 0 0 0 .5 13h3c.141 0 .275-.061.371-.165l4.5-5a.5.5 0 0 0 0-.669Z"/></g><defs><clipPath id="a"><path fill="#fff" d="M0 0h15v15H0z"/></clipPath></defs></svg>
